.icons/oomox-ad/16x16/apps/thimbleweed-park.svg

<svg xmlns="http://www.w3.org/2000/svg" width="16" height="16" version="1.1">
 <path style="fill:#0088b5" d="M 16,11.175 V 2.1725 C 16,1.5295 15.458406,1 14.783912,1 H 1.2164876 C 0.54257307,1 4.7847115e-5,1.5295 4.7847115e-5,2.1725 v 9.0025 c 0,0.643 0.542525222885,1.172 1.216439752885,1.172 H 14.783912 C 15.458406,12.347 16,11.818 16,11.175 Z"/>
 <path style="fill:#003c56" d="m 12.414689,4.6142 c -0.322758,0.87 -1.148139,1.6265 -1.148139,1.6265 0.471646,0.1134 0.589558,0 0.589558,0 -0.235823,0.5673 -1.119161,1.2482 -1.119161,1.2482 0.442668,0.0756 0.972271,-0.1135 0.972271,-0.1135 -0.117911,0.6052 -1.471896,0.9835 -1.471896,0.9835 0.470647,0.2269 1.382963,0 1.382963,0 C 11.296528,8.8884 9.5009743,9.3423 9.5009743,9.3423 10.030477,9.6071 11.41344,9.4936 11.41344,9.4936 10.736947,10.288 9.9935049,10.553 9.9935049,10.553 c 0,0 -0.4505621,0.491 -1.1279541,-0.341 0,0 0.7726206,-0.113 1.3028232,-0.378 0,0 -1.3378969,-0.3404 -1.6614542,-0.8321 0,0 0.9116163,0.2269 1.3825631,0 0,0 -1.3534849,-0.4161 -1.4709968,-0.9835 0,0 0.5299026,0.1513 0.9713715,0.0757 0,0 -0.8837372,-0.6809 -1.1191606,-1.2483 0,0 0.1179115,0.1514 0.5888583,0 0,0 -0.8235823,-0.7565 -1.1475393,-1.6264 -0.3238571,0.8699 -1.1482388,1.6264 -1.1482388,1.6264 0.4709468,0.1514 0.5888583,0 0.5888583,0 C 6.9172121,7.4132 6.0342743,8.0941 6.0342743,8.0941 6.4757432,8.1697 7.0056458,8.0184 7.0056458,8.0184 6.888034,8.5858 5.5338496,9.0019 5.5338496,9.0019 c 0.4709468,0.2269 1.3836623,0 1.3836623,0 -0.3238571,0.4917 -2.1196103,0.9834 -2.1196103,0.9834 0.5295028,0.2267 1.9128653,0.1137 1.9128653,0.1137 -0.6768923,0.832 -1.6323757,0.983 -1.6323757,0.983 0,0 -0.5923557,0.227 -1.2692481,-0.567 0,0 0.7725207,-0.151 1.3021235,-0.416 0,0 -1.3381964,-0.3028 -1.6619536,-0.8323 0,0 0.9128154,0.2269 1.3837622,0 0,0 -1.3535848,-0.4161 -1.4713965,-0.9835 0,0 0.5299026,0.1891 0.9713715,0.0757 0,0 -0.8837372,-0.6431 -1.1191606,-1.2104 0,0 0.1179115,0.1134 0.5888583,0 0,0 -0.8243817,-0.7566 -1.1481389,-1.6643 -0.3237571,0.9077 -1.1474394,1.6643 -1.1474394,1.6643 0.4709468,0.1134 0.5889583,0 0.5889583,0 C 1.8607045,7.7158 0.9769273,8.3589 0.9769273,8.3589 1.4184362,8.4723 1.9491381,8.2832 1.9491381,8.2832 1.8314264,8.8506 0.47710217,9.2667 0.47710217,9.2667 c 0.47098676,0.2269 1.38290283,0 1.38290283,0 -0.2504122,0.416 -1.23348489,0.7563 -1.73331002,0.9073 v 0.152 C 0.74931801,10.477 1.6542593,10.401 1.6542593,10.401 1.3175119,10.78 0.57798651,11.082 0,11.271 v 3.518 C 0,15.432 0.54234324,16 1.2162878,16 H 14.783912 C 15.458406,16 16,15.432 16,14.789 v -3.442 c -0.858356,0.416 -2.081439,0.567 -2.081439,0.567 0,0 0.327754,-1.513 -0.349738,-2.3069 0,0 0.772421,-0.1513 1.302024,-0.4161 0,0 -1.336997,-0.3026 -1.660755,-0.8321 0,0 0.912316,0.2269 1.382963,0 0,0 -1.353984,-0.3783 -1.471896,-0.9835 0,0 0.530602,0.1891 0.971272,0.1135 0,0 -0.882339,-0.6809 -1.118162,-1.2482 0,0 0.116913,0.1134 0.588559,0 0,0 -0.823383,-0.7565 -1.148139,-1.6265 z M 16,9.5314 C 15.721209,9.6449 15.434424,9.7205 15.434424,9.7205 15.57332,9.7962 15.806145,9.7962 16,9.7962 Z m 0,0.7566 c -0.590557,0.227 -1.301024,0.416 -1.301024,0.416 0.284786,0.151 0.865351,0.151 1.301024,0.151 z"/>
 <rect style="fill:#625323" width="1" height="3" x="11" y="13"/>
 <path style="fill:#08c688" d="M 16,12.131 V 6.8703 C 16,6.6055 15.985,6 15.985,6 c 0,0 -0.581,0 -0.809,0 H 9.8247 C 9.3677,6 9,6.3784 9,6.8703 V 12.131 C 9,12.622 9.3677,13 9.8247,13 h 5.3513 c 0.228,0 0.809,0 0.809,0 0,0 0.015,-0.643 0.015,-0.869 z"/>
</svg>

<svg xmlns="http://www.w3.org/2000/svg" width="16" height="16" version="1.1">
 <path style="fill:#0088b5" d="M 16.012,11.175 V 2.1725 C 16.012,1.5295 15.47,1 14.795,1 H 1.2174 C 0.54298,1 4.7883e-5,1.5295 4.7883e-5,2.1725 V 11.175 C 4.7883e-5,11.818 0.54298,12.347 1.2174,12.347 H 14.795 C 15.47,12.347 16.012,11.818 16.012,11.175 Z"/>
 <path style="fill:#003c56" d="M 12.424,4.6142 C 12.101,5.4842 11.275,6.2407 11.275,6.2407 11.747,6.3541 11.865,6.2407 11.865,6.2407 11.629,6.808 10.745,7.4889 10.745,7.4889 11.188,7.5645 11.718,7.3754 11.718,7.3754 11.6,7.9806 10.245,8.3589 10.245,8.3589 10.716,8.5858 11.629,8.3589 11.629,8.3589 11.305,8.8884 9.5081,9.3423 9.5081,9.3423 10.038,9.6071 11.422,9.4936 11.422,9.4936 10.745,10.288 10.001,10.553 10.001,10.553 10.001,10.553 9.5501,11.044 8.8722,10.212 8.8722,10.212 9.6454,10.099 10.176,9.834 10.176,9.834 8.8371,9.4936 8.5133,9.0019 8.5133,9.0019 9.4256,9.2288 9.8969,9.0019 9.8969,9.0019 8.5424,8.5858 8.4248,8.0184 8.4248,8.0184 8.9551,8.1697 9.3969,8.0941 9.3969,8.0941 8.5125,7.4132 8.2769,6.8458 8.2769,6.8458 8.3949,6.9972 8.8662,6.8458 8.8662,6.8458 8.042,6.0893 7.7178,5.2194 7.3937,6.0893 6.5687,6.8458 6.5687,6.8458 7.04,6.9972 7.158,6.8458 7.158,6.8458 6.9224,7.4132 6.0388,8.0941 6.0388,8.0941 6.4806,8.1697 7.0109,8.0184 7.0109,8.0184 6.8932,8.5858 5.538,9.0019 5.538,9.0019 6.0093,9.2288 6.9227,9.0019 6.9227,9.0019 6.5986,9.4936 4.8015,9.9853 4.8015,9.9853 5.3314,10.212 6.7158,10.099 6.7158,10.099 6.0384,10.931 5.0822,11.082 5.0822,11.082 5.0822,11.082 4.4894,11.309 3.812,10.515 3.812,10.515 4.5851,10.364 5.1151,10.099 5.1151,10.099 3.7759,9.7962 3.4519,9.2667 3.4519,9.2667 4.3654,9.4936 4.8367,9.2667 4.8367,9.2667 3.4821,8.8506 3.3642,8.2832 3.3642,8.2832 3.8945,8.4723 4.3363,8.3589 4.3363,8.3589 3.4519,7.7158 3.2163,7.1485 3.2163,7.1485 3.3343,7.2619 3.8056,7.1485 3.8056,7.1485 2.9806,6.3919 2.6566,5.4842 2.3326,6.3919 1.5083,7.1485 1.5083,7.1485 1.9796,7.2619 2.0977,7.1485 2.0977,7.1485 1.8621,7.7158 0.97766,8.3589 0.97766,8.3589 1.4195,8.4723 1.9506,8.2832 1.9506,8.2832 1.8328,8.8506 0.47746,9.2667 0.47746,9.2667 0.9488,9.4936 1.8614,9.2667 1.8614,9.2667 1.6108,9.6827 0.62699,10.023 0.12679,10.174 V 10.326 C 0.74988,10.477 1.6555,10.401 1.6555,10.401 1.3185,10.78 0.57842,11.082 0,11.271 V 14.789 C 0,15.432 0.54275,16 1.2172,16 H 14.795 C 15.47,16 16.012,15.432 16.012,14.789 V 11.347 C 15.153,11.763 13.929,11.914 13.929,11.914 13.929,11.914 14.257,10.401 13.579,9.6071 13.579,9.6071 14.352,9.4558 14.882,9.191 14.882,9.191 13.544,8.8884 13.22,8.3589 13.22,8.3589 14.133,8.5858 14.604,8.3589 14.604,8.3589 13.249,7.9806 13.131,7.3754 13.131,7.3754 13.662,7.5645 14.103,7.4889 14.103,7.4889 13.22,6.808 12.984,6.2407 12.984,6.2407 13.101,6.3541 13.573,6.2407 13.573,6.2407 12.749,5.4842 12.424,4.6142 Z M 16.012,9.5314 C 15.733,9.6449 15.446,9.7205 15.446,9.7205 15.585,9.7962 15.818,9.7962 16.012,9.7962 Z M 16.012,10.288 C 15.421,10.515 14.71,10.704 14.71,10.704 14.995,10.855 15.576,10.855 16.012,10.855 Z"/>
 <rect style="fill:#625323" width="1" height="3" x="11" y="13"/>
 <path style="fill:#08c688" d="M 16,12.131 V 6.8703 C 16,6.6055 15.985,6 15.985,6 15.985,6 15.404,6 15.176,6 H 9.8247 C 9.3677,6 9,6.3784 9,6.8703 V 12.131 C 9,12.622 9.3677,13 9.8247,13 H 15.176 C 15.404,13 15.985,13 15.985,13 15.985,13 16,12.357 16,12.131 Z"/>
</svg>
